img/panel-icons/title-layout-outside.svg

<svg xmlns="http://www.w3.org/2000/svg" viewBox="0 0 49 45" width="65.333" height="60"  xmlns:v="https://vecta.io/nano"><path d="M4.5 12.5h24.72a3 3 0 0 1 3 3v26.2a3 3 0 0 1-3 3H4.5a3 3 0 0 1-3-3V15.5a3 3 0 0 1 3-3z" fill="#e9e9e9"/><path d="M4.5 12.5h24.72a3 3 0 0 1 3 3v26.2a3 3 0 0 1-3 3H4.5a3 3 0 0 1-3-3V15.5a3 3 0 0 1 3-3z" fill="none" stroke="#cbcbcb" stroke-miterlimit="2"/><path d="M40.263 12h7.874c.476 0 .863.387.863.863v30.474c0 .476-.387.863-.863.863h-7.874c-.476 0-.863-.387-.863-.863V12.863c0-.476.387-.863.863-.863zM5.279 4h12.442A1.28 1.28 0 0 1 19 5.279v3.442A1.28 1.28 0 0 1 17.721 10H5.279A1.28 1.28 0 0 1 4 8.721V5.279A1.28 1.28 0 0 1 5.279 4z" fill="#8e8e8e"/></svg>

<?xml version="1.0" encoding="UTF-8" standalone="no"?><!-- Generator: Gravit.io --><svg xmlns="http://www.w3.org/2000/svg" xmlns:xlink="http://www.w3.org/1999/xlink" style="isolation:isolate" viewBox="0 0 49 45" width="49pt" height="45pt"><g><g><path d="M 4.5 12.5 L 29.22 12.5 C 30.876 12.5 32.22 13.844 32.22 15.5 L 32.22 41.7 C 32.22 43.356 30.876 44.7 29.22 44.7 L 4.5 44.7 C 2.844 44.7 1.5 43.356 1.5 41.7 L 1.5 15.5 C 1.5 13.844 2.844 12.5 4.5 12.5 Z" style="stroke:none;fill:#E9E9E9;stroke-miterlimit:10;"/><path d="M 4.5 12.5 L 29.22 12.5 C 30.876 12.5 32.22 13.844 32.22 15.5 L 32.22 41.7 C 32.22 43.356 30.876 44.7 29.22 44.7 L 4.5 44.7 C 2.844 44.7 1.5 43.356 1.5 41.7 L 1.5 15.5 C 1.5 13.844 2.844 12.5 4.5 12.5 Z" style="fill:none;stroke:#CBCBCB;stroke-width:1;stroke-miterlimit:2;"/><path d="M 40.263 12 L 48.137 12 C 48.613 12 49 12.387 49 12.863 L 49 43.337 C 49 43.813 48.613 44.2 48.137 44.2 L 40.263 44.2 C 39.787 44.2 39.4 43.813 39.4 43.337 L 39.4 12.863 C 39.4 12.387 39.787 12 40.263 12 Z" style="stroke:none;fill:#8E8E8E;stroke-miterlimit:2;"/></g></g><g><g><g><path d="M 5.279 4 L 17.721 4 C 18.427 4 19 4.573 19 5.279 L 19 8.721 C 19 9.427 18.427 10 17.721 10 L 5.279 10 C 4.573 10 4 9.427 4 8.721 L 4 5.279 C 4 4.573 4.573 4 5.279 4 Z" style="stroke:none;fill:#8E8E8E;stroke-miterlimit:2;"/></g></g></g></svg>
